svg/part/dental_line.svg

<?xml version="1.0" encoding="UTF-8"?>
<svg width="24px" height="24px" viewBox="0 0 24 24" version="1.1" xmlns="http://www.w3.org/2000/svg" xmlns:xlink="http://www.w3.org/1999/xlink">
    <title>dental_line</title>
    <g id="Icon" stroke="none" stroke-width="1" fill="none" fill-rule="evenodd">
        <g id="Part" transform="translate(-624.000000, 0.000000)">
            <g id="dental_line" transform="translate(624.000000, 0.000000)">
                <path d="M24,0 L24,24 L0,24 L0,0 L24,0 Z M12.5934901,23.257841 L12.5819402,23.2595131 L12.5108777,23.2950439 L12.4918791,23.2987469 L12.4918791,23.2987469 L12.4767152,23.2950439 L12.4056548,23.2595131 C12.3958229,23.2563662 12.3870493,23.2590235 12.3821421,23.2649074 L12.3780323,23.275831 L12.360941,23.7031097 L12.3658947,23.7234994 L12.3769048,23.7357139 L12.4804777,23.8096931 L12.4953491,23.8136134 L12.4953491,23.8136134 L12.5071152,23.8096931 L12.6106902,23.7357139 L12.6232938,23.7196733 L12.6232938,23.7196733 L12.6266527,23.7031097 L12.609561,23.275831 C12.6075724,23.2657013 12.6010112,23.2592993 12.5934901,23.257841 L12.5934901,23.257841 Z M12.8583906,23.1452862 L12.8445485,23.1473072 L12.6598443,23.2396597 L12.6498822,23.2499052 L12.6498822,23.2499052 L12.6471943,23.2611114 L12.6650943,23.6906389 L12.6699349,23.7034178 L12.6699349,23.7034178 L12.678386,23.7104931 L12.8793402,23.8032389 C12.8914285,23.8068999 12.9022333,23.8029875 12.9078286,23.7952264 L12.9118235,23.7811639 L12.8776777,23.1665331 C12.8752882,23.1545897 12.8674102,23.1470016 12.8583906,23.1452862 L12.8583906,23.1452862 Z M12.1430473,23.1473072 C12.1332178,23.1423925 12.1221763,23.1452606 12.1156365,23.1525954 L12.1099173,23.1665331 L12.0757714,23.7811639 C12.0751323,23.7926639 12.0828099,23.8018602 12.0926481,23.8045676 L12.108256,23.8032389 L12.3092106,23.7104931 L12.3186497,23.7024347 L12.3186497,23.7024347 L12.3225043,23.6906389 L12.340401,23.2611114 L12.337245,23.2485176 L12.337245,23.2485176 L12.3277531,23.2396597 L12.1430473,23.1473072 Z" id="MingCute" fill-rule="nonzero"></path>
                <path d="M5.41036,3.65404 C6.14253,3.21892 7.01101,3 8.00012,3 C9.02986,3 9.89937,3.54931 10.4748,3.88857 C11.15,4.28662 11.5659,4.5 12.0001,4.5 C12.4343,4.5 12.8503,4.28662 13.5254,3.88859 C14.1009,3.54934 14.9704,3 16.0001,3 C16.9892,3 17.8577,3.21897 18.5898,3.65409 C19.3224,4.08943 19.8629,4.7082 20.2463,5.42206 C20.9962,6.81838 21.1665,8.61363 21.063,10.3629 C20.9581,12.1368 20.5634,13.9932 20.0618,15.6073 C19.5643,17.2083 18.9384,18.6455 18.3322,19.5548 C17.6364,20.5983 16.6694,21.1167 15.6437,20.9728 C14.7029,20.8408 13.9722,20.1803 13.6057,19.4472 C13.2147,18.6653 13.0345,17.7919 12.6911,16.9892 C12.6057,16.7895 12.3121,15.9862 12.0013,16 C12.0008,16 12.0004,16 12.0001,16 C11.6259,16 11.4242,16.7199 11.3091,16.9892 C10.9657,17.7919 10.7855,18.6653 10.3945,19.4472 C10.028,20.1803 9.29724,20.8408 8.35651,20.9728 C7.33081,21.1167 6.36375,20.5983 5.66805,19.5547 C5.06184,18.6454 4.43592,17.2082 3.93841,15.6072 C3.43682,13.9931 3.04213,12.1367 2.93721,10.3628 C2.83375,8.61358 3.00397,6.81833 3.75391,5.42201 C4.1373,4.70815 4.67783,4.08938 5.41036,3.65404 Z M5.84831,15.0137 C6.31773,16.5243 6.87502,17.7596 7.33215,18.4453 C7.48411,18.6733 7.75616,19.0374 8.07867,18.9922 C8.24294,18.9691 8.47221,18.8197 8.60567,18.5528 C8.97707,17.81 9.14335,16.9668 9.47023,16.2026 C9.67089,15.7335 9.9378,15.2157 10.3102,14.8033 C10.6969,14.3751 11.2573,14 12.0001,14 C12.7429,14 13.3033,14.3751 13.69,14.8033 C14.0624,15.2157 14.3293,15.7335 14.53,16.2026 C14.857,16.967 15.023,17.8098 15.3945,18.5528 C15.528,18.8197 15.7573,18.9692 15.9215,18.9922 C16.244,19.0374 16.5161,18.6733 16.6681,18.4453 C17.1252,17.7597 17.6825,16.5243 18.1519,15.0138 C18.6172,13.5163 18.9732,11.8221 19.0665,10.2448 C19.1612,8.64274 18.9772,7.28611 18.4843,6.36837 C18.2463,5.92519 17.9433,5.59638 17.5681,5.37339 C17.1925,5.1502 16.6891,5 16.0001,5 C15.6092,5 15.2225,5.20914 14.4906,5.6413 C13.8951,5.99289 13.0362,6.5 12.0001,6.5 C10.9343,6.5 10.056,5.96338 9.45905,5.61143 C8.76236,5.20069 8.38188,5 8.00012,5 C7.31112,5 6.8077,5.15014 6.43213,5.37334 C6.05692,5.59632 5.75389,5.92514 5.51587,6.36831 C5.02296,7.28606 4.83896,8.64268 4.93372,10.2447 C5.02701,11.8221 5.38297,13.5163 5.84831,15.0137 Z" id="形状" fill="#09244B"></path>
            </g>
        </g>
    </g>
</svg>

<svg xmlns="http://www.w3.org/2000/svg" width="24" height="24"><g fill="none" fill-rule="evenodd"><path d="M24 0v24H0V0h24ZM12.593 23.258l-.011.002-.071.035-.02.004-.014-.004-.071-.035c-.01-.004-.019-.001-.024.005l-.004.01-.017.428.005.02.01.013.104.074.015.004.012-.004.104-.074.012-.016.004-.017-.017-.427c-.002-.01-.009-.017-.017-.018Zm.265-.113-.013.002-.185.093-.01.01-.003.011.018.43.005.012.008.007.201.093c.012.004.023 0 .029-.008l.004-.014-.034-.614c-.003-.012-.01-.02-.02-.022Zm-.715.002a.023.023 0 0 0-.027.006l-.006.014-.034.614c0 .012.007.02.017.024l.015-.002.201-.093.01-.008.004-.011.017-.43-.003-.012-.01-.01-.184-.092Z"/><path fill="#09244B" d="M5.41 3.654C6.143 3.219 7.011 3 8 3c1.03 0 1.9.55 2.475.889.675.398 1.09.611 1.525.611.434 0 .85-.213 1.525-.611C14.101 3.549 14.97 3 16 3c.99 0 1.858.219 2.59.654.732.435 1.273 1.054 1.656 1.768.75 1.396.92 3.192.817 4.94-.105 1.775-.5 3.631-1.001 5.245-.498 1.601-1.124 3.038-1.73 3.948-.696 1.043-1.663 1.562-2.688 1.418-.941-.132-1.672-.793-2.038-1.526-.391-.782-.572-1.655-.915-2.458-.085-.2-.379-1.003-.69-.989-.375 0-.577.72-.692.99-.343.802-.523 1.675-.914 2.457-.367.733-1.098 1.394-2.038 1.526-1.026.144-1.993-.375-2.689-1.418-.606-.91-1.232-2.347-1.73-3.948-.501-1.614-.896-3.47-1-5.244-.104-1.75.066-3.545.816-4.941.383-.714.924-1.333 1.656-1.768Zm.438 11.36c.47 1.51 1.027 2.746 1.484 3.431.152.228.424.592.747.547.164-.023.393-.172.527-.44.371-.742.537-1.585.864-2.35.2-.469.468-.986.84-1.399.387-.428.947-.803 1.69-.803s1.303.375 1.69.803c.372.413.64.93.84 1.4.327.764.493 1.607.865 2.35.133.267.362.416.527.44.322.044.594-.32.746-.548.457-.685 1.015-1.92 1.484-3.431.465-1.498.821-3.192.915-4.77.094-1.601-.09-2.958-.583-3.876-.238-.443-.54-.772-.916-.995C17.192 5.15 16.69 5 16 5c-.39 0-.777.21-1.51.641-.595.352-1.454.859-2.49.859-1.066 0-1.944-.537-2.541-.889C8.762 5.201 8.382 5 8 5c-.689 0-1.192.15-1.568.373-.375.223-.678.552-.916.995-.493.918-.677 2.275-.582 3.877.093 1.577.449 3.271.914 4.769Z"/></g></svg>
